build/images/fb-icons/font.svg

<svg xmlns="http://www.w3.org/2000/svg" preserveAspectRatio="xMidYMid" width="19" height="17" viewBox="0 0 19 17"><defs><style>.cls-1{fill:#777;fill-rule:evenodd}</style></defs><path d="M18.932 16.082a5.461 5.461 0 0 0-1.176-.299c-.358-.029-.621-.114-.788-.254-.099-.059-.232-.269-.4-.631a15.07 15.07 0 0 1-.742-1.649 29.404 29.404 0 0 0-.743-1.816 70.616 70.616 0 0 1-1.095-2.601c-.161-.406-.632-1.502-1.417-3.288L10.231.231l-.126-.232H8.643L5.446 8.013 2.74 14.831c-.213.384-.396.635-.548.753-.16.111-.579.225-1.256.343a9.84 9.84 0 0 0-.914.199l-.023.875h.24c.655 0 1.29-.052 1.907-.155l.548-.088c2.155.147 3.483.221 3.985.221.016-.074.023-.173.023-.299 0-.221-.004-.435-.011-.642l-.463-.066a9.599 9.599 0 0 1-.342-.056 1.226 1.226 0 0 0-.154-.021c-.587-.082-.979-.2-1.177-.355-.129-.088-.194-.247-.194-.476 0-.147.088-.457.263-.929.571-1.543.967-2.554 1.188-3.033l5.138.022 1.051 2.524.536 1.261c.046.126.069.244.069.354a.407.407 0 0 1-.137.299c-.091.074-.35.159-.777.255l-1.496.31c-.03.243-.045.531-.045.863l.662-.022 2.284-.122c.426-.014.94-.022 1.542-.022.73 0 1.45.029 2.158.088.852.059 1.583.089 2.192.089.008-.089.011-.185.011-.288 0-.133-.022-.343-.068-.631zm-8.884-6.287c-.107 0-.306-.002-.6-.006L8.09 9.773l-1.753-.022 1.941-4.982c.297.583.647 1.362 1.051 2.336a45.71 45.71 0 0 1 1.05 2.668l-.331.022z" class="cls-1"/></svg>

<svg xmlns="http://www.w3.org/2000/svg" xmlns:xlink="http://www.w3.org/1999/xlink" preserveAspectRatio="xMidYMid" width="19" height="17" viewBox="0 0 19 17">
  <defs>
    <style>
      .cls-1 {
        fill: #777;
        fill-rule: evenodd;
      }
    </style>
  </defs>
  <path d="M18.932,16.082 C18.506,15.927 18.114,15.828 17.756,15.783 C17.398,15.754 17.135,15.669 16.968,15.529 C16.869,15.470 16.736,15.260 16.568,14.898 C16.256,14.293 16.009,13.743 15.826,13.249 C15.529,12.466 15.281,11.861 15.083,11.433 C14.650,10.452 14.284,9.584 13.988,8.832 C13.827,8.426 13.356,7.330 12.571,5.544 L10.231,0.231 L10.105,-0.001 L9.500,-0.001 L8.643,-0.001 L5.446,8.013 L2.740,14.831 C2.527,15.215 2.344,15.466 2.192,15.584 C2.032,15.695 1.613,15.809 0.936,15.927 C0.494,16.009 0.189,16.075 0.022,16.126 L-0.001,17.001 L0.239,17.001 C0.894,17.001 1.529,16.949 2.146,16.846 L2.694,16.758 C4.849,16.905 6.177,16.979 6.679,16.979 C6.695,16.905 6.702,16.806 6.702,16.680 C6.702,16.459 6.698,16.245 6.691,16.038 C6.531,16.016 6.377,15.994 6.228,15.972 C6.080,15.950 5.966,15.931 5.886,15.916 C5.806,15.902 5.754,15.895 5.732,15.895 C5.145,15.813 4.753,15.695 4.555,15.540 C4.426,15.452 4.361,15.293 4.361,15.064 C4.361,14.917 4.449,14.607 4.624,14.135 C5.195,12.592 5.591,11.581 5.812,11.102 L10.950,11.124 L12.001,13.648 L12.537,14.909 C12.583,15.035 12.606,15.153 12.606,15.263 C12.606,15.374 12.560,15.474 12.469,15.562 C12.378,15.636 12.119,15.721 11.692,15.817 L10.196,16.127 C10.166,16.370 10.151,16.658 10.151,16.990 L10.813,16.968 L13.097,16.846 C13.523,16.832 14.037,16.824 14.639,16.824 C15.369,16.824 16.089,16.853 16.797,16.912 C17.649,16.971 18.380,17.001 18.989,17.001 C18.997,16.912 19.000,16.816 19.000,16.713 C19.000,16.580 18.978,16.370 18.932,16.082 ZM10.048,9.795 C9.941,9.795 9.742,9.793 9.448,9.789 C9.155,9.786 8.703,9.780 8.090,9.773 C7.477,9.765 6.893,9.758 6.337,9.751 L8.278,4.769 C8.575,5.352 8.925,6.131 9.329,7.105 C9.785,8.183 10.135,9.072 10.379,9.773 L10.048,9.795 Z" class="cls-1"/>
</svg>
